X: 42701
T: Whistler, The
R: polka
M: 2/4
K: Gmajor
B/c/|d/e/d/B/ GB/c/|d/e/d/B/ GB/d/|gf/g/ ag|A2- A>B|
c/B/A/G/ F/G/A/B/|c/B/A/G/ FA|dc/d/ ed|B2- B>c|
dd/B/ GB/c/|d/e/d/B/ Gd|gf/g/ ag|e2- e>g|
aa/a/ ag|f/g/f/^e/ f=e|(3d/e/d/ c/d/ ef|g2- g2||
b2- bg/e/|d2- dB/d/|(3g/a/g/ f/g/ ag|e2- e>e|
c'2- c'c'/a/|f2- f/g/f/e/|dc/d/ ed|B2- B/G/B/d/|
b2- bg/e/|d2- d(g|g)g ag|e2- e>e|
a/b/a/^g/ a=g|f/g/f/^e/ ff/=e/|(3d/e/d/ c/d/ ef|g2- g||

